packages/core/src/svgs/tokens/mono/EQX.svg

<svg width="24" height="24" viewBox="0 0 24 24" fill="none" xmlns="http://www.w3.org/2000/svg">
<path d="M2 22V2H22V4.85715H4.85715V19.1428H16.2857V22H2ZM19.1428 9.85717H7V7H22V22H19.1428V15.5715H7V12.7143H19.1428V9.85717Z" fill="white"/>
</svg>

<svg xmlns="http://www.w3.org/2000/svg" width="24" height="24" fill="none" viewBox="0 0 24 24">
    <path fill="#fff" d="M2 22V2h20v2.857H4.857v14.286h11.429V22zM19.143 9.857H7V7h15v15h-2.857v-6.428H7v-2.858h12.143z"/>
</svg>
